svg/directions.svg

<svg xmlns="http://www.w3.org/2000/svg" viewBox="0 0 59 64" enable-background="new 0 0 59 64"><style type="text/css">.st0{fill:#343434;}</style><title>directions</title><desc>Created with Sketch.</desc><path class="st0" d="M54 32h-25v-5h22l8-9-8-10h-22v-6c0-1.1-.9-2-2-2s-2 .9-2 2v6h-20c-1.1 0-2 .9-2 2v15c0 1.1.9 2 2 2h20v5h-17l-8 10 8 9h17v11c0 1.1.9 2 2 2s2-.9 2-2v-11h25c1.1 0 2-.9 2-2v-15c0-1.1-.9-2-2-2zm-47-9v-11h42.1l4.7 5.9-4.6 5.1h-42.2zm45 24h-42.4l-4.6-5.1 4.7-5.9h42.3v11z"/></svg>

<svg xmlns="http://www.w3.org/2000/svg" viewBox="0 0 59 64"><path d="M54 32H29v-5h22l8-9-8-10H29V2c0-1.1-.9-2-2-2s-2 .9-2 2v6H5c-1.1 0-2 .9-2 2v15c0 1.1.9 2 2 2h20v5H8L0 42l8 9h17v11c0 1.1.9 2 2 2s2-.9 2-2V51h25c1.1 0 2-.9 2-2V34c0-1.1-.9-2-2-2zM7 23V12h42.1l4.7 5.9-4.6 5.1H7zm45 24H9.6L5 41.9 9.7 36H52v11z" fill="#343434"/></svg>
